X: 1
T: Main Theme - Simplified (WIP)
B: VG Lead Sheets
G: The Last of Us
C: Gustavo Santaolalla
S: https://vgleadsheets.com/view/the-last-of-us/main-theme
Z: Chombey
V: T
M: 12/8
L: 3/8
Q: 1/3=103
K: G
P: A
B4- | B4 |
e4- | e4 |
_B4- | _B4 |
P: B
G E A F | G G G G |
G E A F | {A}B B B B |
G E A F | G G G G |
_B A G F | E E E E |
E E E E | E E E B/3G/3E/3 |
